X: 3
T: The Kerry
R: polka
M: 2/4
L: 1/8
K: Gmaj
|: BD ED | BD ED | G2 AB | AG ED |
BD ED | BD ED | G2 AB | AG G2 :|
|: Bd BA/A/ | AG ED | G2 AB | AG ED |
Bd BA/A/ | AG ED | G2 AB | AG G2 :|


Tune 39	Setting 28899

